X:1298
L:1/4
M:3/2
K:Gmin
 B2 d2 g2 | f d2 c c (B/A/) | B3/2 A/ (B/c/) d (c/d/) e | f d2 c/B/ A G :| g2 g a b a g/f/ | 
 g (d c B) g2 | B c2 d e2 | (d/c/)(d/A/) B ^G E D | D A2 (B/c/) (B/A/)(B/A/) | c e2 f d2 | 
 (g/f/)(g/d/) c B c d | B A2 G F2 ||

